src/components/00-materials/images-raw/Aircraft.svg

<svg width="96" height="96" viewBox="0 0 96 96" fill="none" xmlns="http://www.w3.org/2000/svg">
<path d="M74.35 26.73V43.38M91 30.43H57.71H91Z" stroke="#00008F" stroke-width="2" stroke-linecap="round" stroke-linejoin="round"/>
<path d="M72.44 60.02H76.26C77.2486 60.02 78.05 59.2186 78.05 58.23V45.16C78.05 44.1714 77.2486 43.37 76.26 43.37H72.44C71.4514 43.37 70.65 44.1714 70.65 45.16V58.23C70.65 59.2186 71.4514 60.02 72.44 60.02Z" stroke="#00008F" stroke-width="2" stroke-linecap="round" stroke-linejoin="round"/>
<path d="M21.65 26.73V43.38M5 30.43H38.29H5Z" stroke="#00008F" stroke-width="2" stroke-linecap="round" stroke-linejoin="round"/>
<path d="M23.56 43.38H19.74C18.7514 43.38 17.95 44.1814 17.95 45.17V58.24C17.95 59.2286 18.7514 60.03 19.74 60.03H23.56C24.5486 60.03 25.35 59.2286 25.35 58.24V45.17C25.35 44.1814 24.5486 43.38 23.56 43.38Z" stroke="#00008F" stroke-width="2" stroke-linecap="round" stroke-linejoin="round"/>
<path d="M60.48 67.42C60.48 63.35 57.15 56.32 53.09 56.32M62.33 67.48H58.63M35.52 67.42C35.52 63.35 38.85 56.32 42.91 56.32M33.67 67.48H37.37" stroke="#00008F" stroke-width="2" stroke-linecap="round" stroke-linejoin="round"/>
<path d="M60.51 47.08H35.49C34.9929 47.08 34.59 47.4829 34.59 47.98V55.43C34.59 55.927 34.9929 56.33 35.49 56.33H60.51C61.0071 56.33 61.41 55.927 61.41 55.43V47.98C61.41 47.4829 61.0071 47.08 60.51 47.08Z" stroke="#00008F" stroke-width="2" stroke-linecap="round" stroke-linejoin="round"/>
<path d="M48 69.27C50.0435 69.27 51.7 67.6134 51.7 65.57C51.7 63.5265 50.0435 61.87 48 61.87C45.9566 61.87 44.3 63.5265 44.3 65.57C44.3 67.6134 45.9566 69.27 48 69.27Z" stroke="#00008F" stroke-width="2" stroke-linecap="round" stroke-linejoin="round"/>
<path d="M61.41 51.7H70.66M48 56.32V61.8699V56.32ZM25.34 51.7H34.59H25.34Z" stroke="#00008F" stroke-width="2" stroke-linecap="round" stroke-linejoin="round"/>
</svg>

<svg width="96" height="96" viewBox="0 0 96 96" fill="none" xmlns="http://www.w3.org/2000/svg"><path d="M74.35 26.73v16.65M91 30.43H57.71 91zM72.44 60.02h3.82a1.79 1.79 0 001.79-1.79V45.16a1.79 1.79 0 00-1.79-1.79h-3.82a1.79 1.79 0 00-1.79 1.79v13.07c0 .989.801 1.79 1.79 1.79zM21.65 26.73v16.65M5 30.43h33.29H5zM23.56 43.38h-3.82a1.79 1.79 0 00-1.79 1.79v13.07c0 .989.801 1.79 1.79 1.79h3.82a1.79 1.79 0 001.79-1.79V45.17a1.79 1.79 0 00-1.79-1.79zM60.48 67.42c0-4.07-3.33-11.1-7.39-11.1m9.24 11.16h-3.7m-23.11-.06c0-4.07 3.33-11.1 7.39-11.1m-9.24 11.16h3.7" stroke="#00008F" stroke-width="2" stroke-linecap="round" stroke-linejoin="round"/><path d="M60.51 47.08H35.49a.9.9 0 00-.9.9v7.45a.9.9 0 00.9.9h25.02a.9.9 0 00.9-.9v-7.45a.9.9 0 00-.9-.9zM48 69.27a3.7 3.7 0 100-7.4 3.7 3.7 0 000 7.4zM61.41 51.7h9.25M48 56.32v5.55-5.55zM25.34 51.7h9.25-9.25z" stroke="#00008F" stroke-width="2" stroke-linecap="round" stroke-linejoin="round"/></svg>
